src/img/logo-usuario.svg

<svg width="13" height="16" viewBox="0 0 13 16" fill="none" xmlns="http://www.w3.org/2000/svg">
<path d="M6.5 0.244141C5.5625 0.244141 4.76562 0.578125 4.10938 1.24609C3.45312 1.90234 3.125 2.69336 3.125 3.61914C3.125 4.55664 3.45312 5.35352 4.10938 6.00977C4.76562 6.66602 5.5625 6.99414 6.5 6.99414C7.4375 6.99414 8.23438 6.66602 8.89062 6.00977C9.54688 5.35352 9.875 4.55664 9.875 3.61914C9.875 2.69336 9.54688 1.90234 8.89062 1.24609C8.23438 0.578125 7.4375 0.244141 6.5 0.244141ZM5.00586 8.50586C4.38477 8.50586 3.79883 8.62305 3.24805 8.85742C2.69727 9.0918 2.2168 9.41406 1.80664 9.82422C1.4082 10.2227 1.0918 10.6973 0.857422 11.248C0.623047 11.7988 0.505859 12.3848 0.505859 13.0059V14.1309C0.505859 14.4355 0.611328 14.6992 0.822266 14.9219C1.04492 15.1445 1.31445 15.2559 1.63086 15.2559H11.3691C11.6855 15.2559 11.9492 15.1445 12.1602 14.9219C12.3828 14.6992 12.4941 14.4355 12.4941 14.1309V13.0059C12.4941 12.3848 12.377 11.7988 12.1426 11.248C11.9082 10.6973 11.5859 10.2227 11.1758 9.82422C10.7773 9.41406 10.3027 9.0918 9.75195 8.85742C9.20117 8.62305 8.61523 8.50586 7.99414 8.50586H5.00586Z" fill="#939598"/>
</svg>

<svg width="13" height="16" fill="none" xmlns="http://www.w3.org/2000/svg"><path d="M6.5.244c-.938 0-1.734.334-2.39 1.002a3.234 3.234 0 00-.985 2.373c0 .938.328 1.735.984 2.39.657.657 1.454.985 2.391.985.938 0 1.734-.328 2.39-.984.657-.656.985-1.453.985-2.39 0-.927-.328-1.718-.984-2.374A3.226 3.226 0 006.5.244zM5.006 8.506a4.518 4.518 0 00-3.2 1.318 4.458 4.458 0 00-.949 1.424 4.443 4.443 0 00-.351 1.758v1.125a1.112 1.112 0 001.125 1.125h9.738c.316 0 .58-.111.791-.334.223-.223.334-.487.334-.791v-1.125a4.442 4.442 0 00-1.318-3.182 4.442 4.442 0 00-3.182-1.318H5.006z" fill="#939598"/></svg>
